X:1
T:Newbury (Haydn), HM
T:Newbury (Haydn), HM
T:Johann Michael Haydn (1737-1806)
T:Public Domain Courtesy of the Cyber Hymnal™
C:Johann Michael Haydn (1737-1806)
Z:Public Domain
Z:Courtesy of the Cyber Hymnal™
%%score ( 1 2 ) ( 3 4 )
L:1/8
Q:1/4=90
M:2/4
K:Eb
V:1 treble 
V:2 treble 
V:3 bass 
V:4 bass 
V:1
 E2 | [EB][EB] [EB][EB] | [Ee]2 [EG]2 | [EF][EF] [DA][FA] | ([FA]2 [EG])[DF] | [EG][EB] [FB][FB] | %6
 [Ee]2 [E=A]2 | [DB][Gc] [Fd][Ec] | [DB]2 [Fd]2 | (eB) ([DA][EG]) | (c2 B)[Fd] | (eB) ([DA][EG]) | %12
 ([EG]2 [DF])[DF] | (G>A B)[EB] | (c>d !fermata!e)[Ec] | (B>A G)[DF] | !fermata!E2 |] %17
V:2
 E2 | x4 | x4 | x4 | x4 | x4 | x4 | x4 | x4 | E2 x2 | E3 x | E2 x2 | x4 | E3 x | E3 x | E3 x | %16
 E2 |] %17
V:3
 [E,G,]2 | [E,G,][E,G,] [D,F,][D,F,] | [C,G,]2 [B,,B,]2 | [A,,C][A,,C] [B,,B,][B,,B,] | %4
 [E,B,]3 [B,,B,] | [E,B,][E,G,] [D,F,][D,F,] | [C,G,]2 F,2 | [B,,F,][E,G,] [F,B,][F,=A,] | %8
 [B,,B,]2 [_A,B,]2 | [G,B,]2 B,2 | (A,2 G,)[A,B,] | [G,B,]2 B,2 | [B,,B,]3 [B,,B,] | %13
 (B,>F, G,)[E,G,] | (A,>B, C)[A,,A,] | (G,>C B,)[B,,A,] | !fermata![E,G,]2 |] %17
V:4
 x2 | x4 | x4 | x4 | x4 | x4 | x2 F,2 | x4 | x4 | x2 (F,E,) | E,3 x | x2 (F,E,) | x4 | E,3 x | %14
 A,,3 x | B,,3 x | x2 |] %17

